src/assets/duotone/AirplaneSquare.svg

<svg width="24" height="24" viewBox="0 0 24 24"  xmlns="http://www.w3.org/2000/svg">
<path opacity="0.4" d="M16.19 2H7.81C4.17 2 2 4.17 2 7.81V16.18C2 19.83 4.17 22 7.81 22H16.18C19.82 22 21.99 19.83 21.99 16.19V7.81C22 4.17 19.83 2 16.19 2Z" />
<path d="M9.86002 19.0002L11.54 17.5802C11.79 17.3702 12.21 17.3702 12.47 17.5802L14.14 19.0002C14.53 19.2002 15.01 19.0002 15.15 18.5802L15.47 17.6202C15.55 17.3902 15.47 17.0502 15.3 16.8802L13.66 15.2302C13.54 15.1102 13.45 14.8802 13.45 14.7202V12.8702C13.45 12.4502 13.76 12.2502 14.15 12.4102L17.5 13.8502C18.05 14.0902 18.51 13.7902 18.51 13.1902V12.2602C18.51 11.7802 18.15 11.2202 17.7 11.0302L13.76 9.33023C13.59 9.26023 13.46 9.05023 13.46 8.87023V6.80023C13.46 6.12023 12.96 5.32023 12.36 5.01023C12.14 4.90023 11.89 4.90023 11.67 5.01023C11.06 5.31023 10.57 6.12023 10.57 6.80023V8.87023C10.57 9.05023 10.43 9.26023 10.27 9.33023L6.33002 11.0302C5.89002 11.2202 5.52002 11.7802 5.52002 12.2602V13.1902C5.52002 13.7902 5.97002 14.0902 6.53002 13.8502L9.88002 12.4102C10.26 12.2402 10.58 12.4502 10.58 12.8702V14.7202C10.58 14.8902 10.48 15.1202 10.37 15.2302L8.70002 16.8702C8.53002 17.0402 8.45002 17.3802 8.53002 17.6102L8.85002 18.5702C8.99002 19.0002 9.46002 19.2002 9.86002 19.0002Z" />
</svg>

<?xml version="1.0" encoding="UTF-8"?>
<svg width="24" height="24" viewBox="0 0 24 24" xmlns="http://www.w3.org/2000/svg">
 <path d="M16.19 2H7.81C4.17 2 2 4.17 2 7.81V16.18C2 19.83 4.17 22 7.81 22H16.18C19.82 22 21.99 19.83 21.99 16.19V7.81C22 4.17 19.83 2 16.19 2Z" opacity=".4"/>
 <path d="m9.86 19 1.68-1.42c0.25-0.21 0.67-0.21 0.93 0l1.67 1.42c0.39 0.2 0.87 0 1.01-0.42l0.32-0.96c0.08-0.23 0-0.57-0.17-0.74l-1.64-1.65c-0.12-0.12-0.21-0.35-0.21-0.51v-1.85c0-0.42 0.31-0.62 0.7-0.46l3.35 1.44c0.55 0.24 1.01-0.06 1.01-0.66v-0.93c0-0.48-0.36-1.04-0.81-1.23l-3.94-1.7c-0.17-0.07-0.3-0.28-0.3-0.46v-2.07c0-0.68-0.5-1.48-1.1-1.79-0.22-0.11-0.47-0.11-0.69 0-0.61 0.3-1.1 1.11-1.1 1.79v2.07c0 0.18-0.14 0.39-0.3 0.46l-3.94 1.7c-0.44 0.19-0.81 0.75-0.81 1.23v0.93c0 0.6 0.45 0.9 1.01 0.66l3.35-1.44c0.37998-0.17 0.69998 0.04 0.69998 0.46v1.85c0 0.17-0.1 0.4-0.21 0.51l-1.67 1.64c-0.17 0.17-0.25 0.51-0.17 0.74l0.32 0.96c0.14 0.43 0.61 0.63 1.01 0.43z"/>
</svg>
